X: 1727
T: Seni Hükm-ü Ezel...
C: Muallim İsmail Hakkı Bey
O: Turkey
F: http://compmusic.upf.edu/node/140
N: nihavent--agirsemai--aksaksemai--seni_hukm-u--muallim_ismail_hakki_bey
N: makam= nihavent
N: form= agirsemai
N: usul= aksaksemai = 10/8
M: 10/8
L: 1/16
K: C _B _e  
Q: 1/4=108
%%MIDI tuningsystem comma53
G4 G2d4e/d/e/f/ edd2 c2B2  | A4 c2d3BA3cB4AG  | 
w:  Ah  se ni  hükm_ *  *  *  *  *  ü   |  *  e zel  *  â *  şûb_  | 
G4 G2G3AB/A/B/c/ BAA4d2  | d4 d2d/e/d/c/ def{a}g/f/ edd3gfe  | 
w:  *  u  dev *  rân  *  *  *  *  *  et  |  *  mek_ is *  *  *  *  *  ter *  *  *  *  *  miş   SAZ  | 
d4 d2g4g/^f/g/a/ gff4ed  | e3d agg^f2ee/d/e/f/ edd3c(3BAB  | 
w:  *  Be ni  bah *  *  *  *  *  tım   |  *  *  gi *  bi  *  *  zâr_ *  *  *  *  *  ı   | 
c4 c2c3dd3AB3A(3G^FG  | A4 G2G3ABA G^FG3BAc  | 
w:  *  pe rî *  şân  *  et  |  *  mek_ is *  ter *  *  *  miş   SAZ  | 
B4 B2B3AAG G^Fc4d2  | c4 c2d3ccB BAB3A(3dcB  | 
w:  *  Se ni  *  se *  *  *  ni   |  *  çok tan  *  be *  *  *  ri   | 
B4 B2B3AAG G^Fc4d2  | d4 d2d/e/d/c/ def{a}g/f/ edd3gfe  | 
w:  *  a cep  *  ni *  *  *  çin   |  *  üz dün  *  *  *  *  *  be *  *  *  *  *  ni   SAZ  | 
d4 d2d3ed4d2 {e}d2{e}d2  | {e}d4 c2c3dc4c2 {d}c2{d}c2  | \
w:  *  Te  nen  ni  nen  SAZ  |  *  *  te  nen  ni  nen  SAZ  | 
{d}c4 B2B3cB4AB c2BA  | 
w:  *  *  te  nen  ni  nen  ni    | 
G4 G2G3dd3/2c/ Bcd3gfe  | d4 d2d3ed4d2 {e}d2{e}d2  | \
w:  *  Te nen  *  nen  *  *  *  ni  SAZ  |  *  Te  nen  ni  nen  SAZ  | 
{e}d4 c2c3dc4c2 {d}c2{d}c2  | 
w:  *  *  te  nen  ni  nen  SAZ  | 
{d}c4 B2B3cB4AB c2BA  | G4 G2G3cc_2/4B ABc4Bd  | 
w:  *  *  te  nen  ni  nen  ni    |  *  ye  lel  *  lel  *  *  *  li   SAZ  | 
c4 c2c3dd3AB3A(3G^FG  | A4 G2G3ABA G^FG3gfa  | 
w:  *  pe rî *  şân  *  et  |  *  mek_ is *  ter *  *  *  miş   SAZ  | 
g4 g2g3af3g_2/4e4fe  | d4 c2c3ggf _2/4efg4fa  | \
w:  Ah  me ğer  *  sâ *  kî  |  *  yi  dev *  râ *  *  *  nın  SAZ  | 
g4 g2g3fa2 gff4(3_2/4ede  | 
w:  *  fü sûn_ *  u  *  *  iş  | 
f2_3/4ed d2d3_ec3dd3gfe  | d4 d2g4g/^f/g/a/ gff4ed  | 
w:  *  *  *  ve den  *  kas *  tı   SAZ  |  *  Be ni  bah *  *  *  *  *  tım   | 
e3d agg^f2ee/d/e/f/ edd3c(3BAB  | \
w:  *  *  gi *  bi  *  *  zâr_ *  *  *  *  *  ı   | 
c4 c2c3dd3AB3A(3G^FG  | 
w:  *  pe rî *  şân  *  et  | 
A4 G2G3ABA G^FG3BAc  | B4 B2B3AAG G^Fc4d2  | 
w:  *  mek_ is *  ter *  *  *  miş   SAZ  |  *  Se ni  *  se *  *  *  ni   | 
c4 c2d3ccB BAB3A(3dcB  | B4 B2B3AAG G^Fc4d2  | 
w:  *  çok tan  *  be *  *  *  ri   |  *  a cep  *  ni *  *  *  çin   | 
d4 d2d/e/d/c/ def{a}g/f/ edd3gfe  | \
w:  *  üz dün  *  *  *  *  *  be *  *  *  *  *  ni   SAZ  | 
d4 d2d3ed4d2 {e}d2{e}d2  | 
w:  *  Te  nen  ni  nen  SAZ  | 
{e}d4 c2c3dc4c2 {d}c2{d}c2  | {d}c4 B2B3cB4AB c2BA  | \
w:  *  *  te  nen  ni  nen  SAZ  |  *  *  te  nen  ni  nen  ni    | 
G4 G2G3dd3/2c/ Bcd3gfe  | 
w:  *  Te nen  *  nen  *  *  *  ni  SAZ  | 
d4 d2d3ed4d2 {e}d2{e}d2  | {e}d4 c2c3dc4c2 {d}c2{d}c2  | \
w:  *  Te  nen  ni  nen  SAZ  |  *  *  te  nen  ni  nen  SAZ  | 
{d}c4 B2B3cB4AB c2BA  | 
w:  *  *  te  nen  ni  nen  ni    | 
G4 |
w:   | 


